static/logos/restream-wordmark-color.svg

<svg width="128" height="21" viewBox="0 0 128 21" fill="none" xmlns="http://www.w3.org/2000/svg">
<g clip-path="url(#clip0_1_1240)">
<path d="M9.99997e-05 19.9201H5.6837V12.7877H7.021L11.0608 19.9201H17.0787L12.3145 11.6732C14.4041 10.8653 15.9086 9.27721 15.9086 6.43541V6.32391C15.9086 2.11691 13.011 -0.000488281 7.8011 -0.000488281H0L9.99997e-05 19.9201ZM5.6837 9.08211V4.29001H7.5504C9.3892 4.29001 10.3922 4.93081 10.3922 6.54671V6.65821C10.3922 8.27411 9.44495 9.08211 7.5226 9.08211H5.6837Z" fill="black"/>
<path d="M25.4045 20.2551C29.8065 20.2551 32.3418 18.3884 32.7876 15.1008H28.107C27.912 16.076 27.2154 16.8282 25.5716 16.8282C23.7885 16.8282 22.6741 15.7138 22.5348 13.7914H32.7878V12.4819C32.7878 7.24397 29.3609 4.95947 25.3768 4.95947C20.9748 4.95947 17.4922 7.91267 17.4922 12.5933V12.8162C17.4922 17.5804 20.8353 20.2551 25.4045 20.2551ZM22.5905 10.9774C22.8413 9.22217 23.8721 8.24697 25.3766 8.24697C26.9925 8.24697 27.8562 9.22217 27.9398 10.9774H22.5905Z" fill="black"/>
<path d="M40.7726 20.2551C44.8124 20.2551 47.3756 18.6949 47.3756 15.2401C47.3756 12.1197 45.4253 11.061 41.3855 10.5595C39.6024 10.3366 38.9337 10.058 38.9337 9.36147C38.9337 8.69277 39.491 8.21917 40.5775 8.21917C41.7198 8.21917 42.2492 8.69277 42.4442 9.66787H46.9577C46.6233 6.18527 44.1159 4.95947 40.5218 4.95947C37.1506 4.95947 34.281 6.51967 34.281 9.75147C34.281 12.7884 35.9248 13.9307 39.8253 14.4322C41.8313 14.7108 42.5278 15.0451 42.5278 15.7416C42.5278 16.466 41.9706 16.9396 40.7447 16.9396C39.3238 16.9396 38.8502 16.3546 38.683 15.2959H34.0859C34.1974 18.5277 36.6213 20.2551 40.7726 20.2551Z" fill="black"/>
<path d="M55.1941 20.2549C56.3643 20.2549 57.3115 20.0041 57.9523 19.837V16.0479C57.5066 16.2151 57.0887 16.2986 56.5314 16.2986C55.5842 16.2986 55.0548 15.825 55.0548 14.7663V8.7483H57.9245V5.3493H55.0548V2.3125H50.0677V5.3493H48.3125V8.7483H50.0677V15.2399C50.0677 18.6668 51.9065 20.2549 55.1941 20.2549Z" fill="black"/>
<path d="M60.2266 19.92H65.2137V13.0105C65.2137 10.6701 66.8854 9.72287 69.9222 9.80647V5.15367C67.6655 5.12581 66.1331 6.07309 65.2137 8.24617V5.34867H60.2266V19.92Z" fill="black"/>
<path d="M79.139 20.2551C83.541 20.2551 86.0764 18.3884 86.5222 15.1008H81.8415C81.6465 16.076 80.95 16.8282 79.3062 16.8282C77.5231 16.8282 76.4087 15.7138 76.2693 13.7914H86.5223V12.4819C86.5223 7.24397 83.0954 4.95947 79.1113 4.95947C74.7092 4.95947 71.2266 7.91267 71.2266 12.5933V12.8162C71.2266 17.5804 74.5698 20.2551 79.139 20.2551ZM76.3251 10.9774C76.5758 9.22217 77.6067 8.24697 79.1112 8.24697C80.7271 8.24697 81.5908 9.22217 81.6744 10.9774H76.3251Z" fill="black"/>
<path d="M92.8923 20.2551C95.2326 20.2551 96.5142 19.28 97.2107 18.2212V19.9208H102.058V10.4759C102.058 6.60317 99.4953 4.95947 95.4833 4.95947C91.4992 4.95947 88.741 6.68687 88.5181 10.1973H93.1987C93.3102 9.27787 93.8117 8.46987 95.1769 8.46987C96.7649 8.46987 97.0993 9.38927 97.0993 10.7824V11.1167H95.7062C90.8584 11.1167 87.9609 12.454 87.9609 15.8809C87.9609 18.9735 90.2733 20.2551 92.8923 20.2551ZM94.6196 16.8839C93.4495 16.8839 92.8923 16.3546 92.8923 15.5187C92.8923 14.3207 93.7838 13.9307 95.7898 13.9307H97.0993V14.8222C97.0993 16.076 96.0406 16.8839 94.6196 16.8839Z" fill="black"/>
<path d="M104.898 19.92H109.885V11.4781C109.885 9.89004 110.777 9.02634 112.114 9.02634C113.257 9.02634 113.981 9.75074 113.981 11.2274V19.92H118.912V11.4781C118.912 9.89004 119.804 9.02634 121.141 9.02634C122.284 9.02634 123.008 9.75074 123.008 11.2274V19.92H127.995V10.3915C127.995 6.74184 125.989 4.95874 123.231 4.95874C121.392 4.95874 119.665 5.68312 118.411 7.38274C117.714 5.79464 116.377 4.95874 114.455 4.95874C112.198 4.95874 110.666 6.18454 109.885 7.57774V5.34884H104.898V19.92Z" fill="black"/>
</g>
<defs>
<clipPath id="clip0_1_1240">
<rect width="128" height="21" fill="white"/>
</clipPath>
</defs>
</svg>

<svg xmlns="http://www.w3.org/2000/svg" width="390.095" height="64" fill="none" viewBox="0 0 128 21"><g fill="#000" clip-path="url(#a)"><path d="M0 19.92h5.684v-7.132H7.02l4.04 7.132h6.018l-4.764-8.247c2.09-.808 3.594-2.396 3.594-5.238v-.111C15.909 2.117 13.01 0 7.8 0H0v19.92ZM5.684 9.082V4.29H7.55c1.84 0 2.842.64 2.842 2.257v.111c0 1.616-.947 2.424-2.87 2.424H5.685ZM25.404 20.255c4.402 0 6.938-1.867 7.384-5.154h-4.681c-.195.975-.892 1.727-2.535 1.727-1.784 0-2.898-1.114-3.037-3.037h10.253v-1.31c0-5.237-3.427-7.522-7.411-7.522-4.402 0-7.885 2.954-7.885 7.634v.223c0 4.764 3.343 7.44 7.912 7.44Zm-2.814-9.278c.251-1.755 1.282-2.73 2.787-2.73 1.616 0 2.48.975 2.563 2.73h-5.35ZM40.773 20.255c4.04 0 6.603-1.56 6.603-5.015 0-3.12-1.95-4.179-5.99-4.68-1.784-.223-2.452-.502-2.452-1.199 0-.668.557-1.142 1.644-1.142 1.142 0 1.671.474 1.866 1.449h4.514c-.335-3.483-2.842-4.709-6.436-4.709-3.371 0-6.241 1.56-6.241 4.792 0 3.037 1.644 4.18 5.544 4.681 2.006.279 2.703.613 2.703 1.31 0 .724-.557 1.198-1.783 1.198-1.421 0-1.895-.585-2.062-1.644h-4.597c.111 3.232 2.535 4.96 6.687 4.96ZM55.194 20.255c1.17 0 2.117-.25 2.758-.418v-3.79c-.445.168-.863.252-1.42.252-.948 0-1.477-.474-1.477-1.533V8.748h2.87V5.35h-2.87V2.312h-4.987V5.35h-1.755v3.4h1.755v6.49c0 3.428 1.839 5.016 5.126 5.016ZM60.227 19.92h4.987v-6.91c0-2.34 1.671-3.287 4.708-3.204V5.154c-2.257-.028-3.789.92-4.708 3.092V5.35h-4.987V19.92ZM79.139 20.255c4.402 0 6.937-1.867 7.383-5.154h-4.68c-.195.975-.892 1.727-2.536 1.727-1.783 0-2.897-1.114-3.037-3.037h10.253v-1.31c0-5.237-3.427-7.522-7.41-7.522-4.403 0-7.885 2.954-7.885 7.634v.223c0 4.764 3.343 7.44 7.912 7.44Zm-2.814-9.278c.25-1.755 1.282-2.73 2.786-2.73 1.616 0 2.48.975 2.563 2.73h-5.349ZM92.892 20.255c2.34 0 3.622-.975 4.319-2.034v1.7h4.847v-9.445c0-3.873-2.563-5.517-6.575-5.517-3.984 0-6.742 1.728-6.965 5.238h4.68c.112-.92.614-1.727 1.979-1.727 1.588 0 1.922.92 1.922 2.312v.335h-1.393c-4.848 0-7.745 1.337-7.745 4.764 0 3.093 2.312 4.374 4.931 4.374Zm1.728-3.371c-1.17 0-1.728-.53-1.728-1.365 0-1.198.892-1.588 2.898-1.588h1.31v.891c0 1.254-1.06 2.062-2.48 2.062ZM104.898 19.92h4.987v-8.442c0-1.588.892-2.452 2.229-2.452 1.143 0 1.867.725 1.867 2.201v8.693h4.931v-8.442c0-1.588.892-2.452 2.229-2.452 1.143 0 1.867.725 1.867 2.201v8.693h4.987v-9.529c0-3.65-2.006-5.432-4.764-5.432-1.839 0-3.566.724-4.82 2.424-.697-1.588-2.034-2.424-3.956-2.424-2.257 0-3.789 1.226-4.57 2.619v-2.23h-4.987V19.92Z"/></g><defs><clipPath id="a"><path fill="#fff" d="M0 0h128v21H0z"/></clipPath></defs></svg>
